X:1
T:Afton, 11.11.11.11 D
T:Afton, 11.11.11.11 D
T:Jonathan Edwards Spilman, 1837
T:Public Domain Courtesy of the Cyber Hymnal™
C:Jonathan Edwards Spilman, 1837
Z:Public Domain
Z:Courtesy of the Cyber Hymnal™
%%score ( 1 2 ) ( 3 4 )
L:1/8
Q:1/4=110
M:3/4
K:G
V:1 treble 
V:2 treble 
V:3 bass 
V:4 bass 
V:1
 D2 | [DG]2 [DG]2 (BA) | [B,G]2 [B,G]2 D2 | [CE]2 [CG]2 [CE]2 | [B,D]4 [B,D]2 | [DG]2 [DG]2 [DA]2 | %6
 [DB]2 [DB]2 [Gd]2 | [Gd]2 [GB]2 G2 | [FA]4 D2 | [DG]2 [DG]2 (BA) | [B,G]2 [B,G]2 D2 | %11
 [CE]2 [Cc]2 [CE]2 | [B,D]4 [B,D]2 | [DG]2 [DG]2 [DA]2 | [DB]2 !fermata![=Fd]2 [Ec]2 | %15
 D2 D2 [CF]2 | [B,G]4 ([DF][EG]) | [FA]2 [FA]2 [Fd]2 | [FA]2 [FA]2 ([DF][EG]) | %19
 ([FA][GB]) ([FA][EG]) ([DF][^CE]) | D4 ([DF][EG]) | [FA]2 [FA]2 [Fd]2 | [FA]2 [FA]2 [DF]2 | %23
 ([EG][DF]) ([EG][FA]) (B^c) | [Fd]4 [Fe]2 | [Gd]2 [DB]2 (BA) | [B,G]2 [B,G]2 D2 | %27
 [CE]2 [Cc]2 [CE]2 | [B,D]4 [B,D]2 | [DG]2 [DG]2 [DA]2 | [DB]2 !fermata![=Fd]2 [Ec]2 | %31
 D2 D2 [CF]2 | [B,G]4 |] %33
V:2
 D2 | x4 C2 | x4 D2 | x6 | x6 | x6 | x6 | x4 G2 | x4 D2 | x4 C2 | x4 D2 | x6 | x6 | x6 | x6 | %15
 D2 D2 x2 | x6 | x6 | x6 | x6 | D4 x2 | x6 | x6 | x4 G2 | x6 | x4 C2 | x4 D2 | x6 | x6 | x6 | x6 | %31
 D2 D2 x2 | x4 |] %33
V:3
 D,2 | [G,,B,]2 [B,,G,]2 [D,F,]2 | G,2 G,2 [B,,G,]2 | [C,G,]2 [C,E,]2 [C,G,]2 | [G,,G,]4 [G,,G,]2 | %5
 [G,,B,]2 [B,,G,]2 [D,F,]2 | G,2 G,2 [G,B,]2 | [G,B,]2 G,2 [G,B,]2 | [D,D]4 [D,D]2 | %9
 [G,,B,]2 [B,,G,]2 [D,F,]2 | G,2 G,2 [B,,G,]2 | [C,G,]2 [C,E,]2 [C,G,]2 | [G,,G,]4 [G,,G,]2 | %13
 [G,,B,]2 [B,,G,]2 [D,F,]2 | G,2 !fermata![B,,G,]2 [C,G,]2 | [D,B,]2 [D,B,]2 [D,A,]2 | %16
 [G,,G,]4 [D,A,]2 | [D,D]2 [D,D]2 [D,A,]2 | [D,D]2 [D,D]2 [D,A,]2 | [A,,A,]2 [A,,A,]2 [A,,G,]2 | %20
 [D,F,]4 [D,A,]2 | [D,D]2 [D,D]2 [D,A,]2 | [D,D]2 [D,D]2 [D,A,]2 | [A,,A,]2 [A,,A,]2 [A,,A,]2 | %24
 [D,A,]4 [D,C]2 | [G,B,]2 [B,,G,]2 [D,F,]2 | G,2 G,2 [B,,G,]2 | [C,G,]2 [C,E,]2 [C,G,]2 | %28
 [G,,G,]4 [G,,G,]2 | [G,,B,]2 [B,,G,]2 [D,F,]2 | G,2 !fermata![B,,G,]2 [C,G,]2 | %31
 [D,B,]2 [D,B,]2 [D,A,]2 | [G,,G,]4 |] %33
V:4
 D,2 | x6 | G,2 G,2 x2 | x6 | x6 | x6 | G,2 G,2 x2 | x2 G,2 x2 | x6 | x6 | G,2 G,2 x2 | x6 | x6 | %13
 x6 | G,2 x4 | x6 | x6 | x6 | x6 | x6 | x6 | x6 | x6 | x6 | x6 | x6 | G,2 G,2 x2 | x6 | x6 | x6 | %30
 G,2 x4 | x6 | x4 |] %33

